!!!COM: Janáček, Leoš [Leo Eugen]
!!!OTL: Sinfonietta for Large Orchestra
!!!OMV: II: Andante
!!!example: 145
!!!work: Jan-49
**kern	**dynam	**kern	**dynam	**kern	**dynam	**kern	**dynam	**kern
*part5	*part5	*part4	*part4	*part3	*part3	*part2	*part2	*part1
*staff5	*	*staff4	*	*staff3	*	*staff2	*	*staff1
*I"Violoncello	*	*I"Viola	*	*I"Violin II	*	*I"Violin I	*	*I"Clarinet in Bb
*I'Vc.	*	*I'Vla.	*	*I'Vln. II	*	*I'Vln. I	*	*I'Cl.
*clefF4	*	*clefC3	*	*clefG2	*	*clefG2	*	*clefG2
*k[]	*	*k[]	*	*k[]	*	*k[]	*	*k[]
*	*	*	*	*	*	*	*	*
*M2/4	*	*M2/4	*	*M2/4	*	*M2/4	*	*M2/4
*MM121	*	*MM121	*	*MM121	*	*MM121	*	*MM121
=58b	=58b	=58b	=58b	=58b	=58b	=58b	=58b	=58b
(16D-XLL	mf	4.D-X 4.A-X	.	4.f-X	.	4.a-X	.	8f-XL 8a-X
16DD-XJ)	.	.	.	.	.	.	.	.
8EE-XJ	.	.	.	.	.	.	.	8f-J 8a-
8C-XL	.	.	.	.	.	.	.	8f-L 8a-
(16D-L	.	8r	.	8r	.	8r	.	[8f-J [8a-
16FF-XJJ)	.	.	.	.	.	.	.	.
=59	=59	=59	=59	=59	=59	=59	=59	=59
(16D-XLL	.	2r	.	8r	.	8r	.	2f-_ 2a-_
16DD-XJ)	.	.	.	.	.	.	.	.
8EE-XJ	.	.	.	(4.e-X	f	(4.ee-X	f	.
8C-XL	.	.	.	.	.	.	.	.
(16D-L	.	.	.	.	.	.	.	.
16FF-XJJ)	.	.	.	.	.	.	.	.
=60	=60	=60	=60	=60	=60	=60	=60	=60
(16D-XLL	.	2r	.	4.a-X	.	4.aa-X	.	2f-_ 2a-_
16DD-XJ)	.	.	.	.	.	.	.	.
8EE-XJ	.	.	.	.	.	.	.	.
8C-XL	.	.	.	.	.	.	.	.
(16D-L	.	.	.	[8b-X	<	[8bb-X	<	.
16FF-XJJ)	.	.	.	.	.	.	.	.
=61	=61	=61	=61	=61	=61	=61	=61	=61
(16D-XLL	.	2r	.	4b-]	.	4bb-]	.	2f-_ 2a-_
16DD-XJ)	.	.	.	.	.	.	.	.
8EE-XJ	.	.	.	.	.	.	.	.
8C-XL	.	.	.	[4dd-X	[	[4ddd-X	[	.
(16D-L	.	.	.	.	.	.	.	.
16FF-XJJ)	.	.	.	.	.	.	.	.
=62	=62	=62	=62	=62	=62	=62	=62	=62
(16D-XLL	.	2r	.	8dd-]	.	8ddd-]	.	2f-] 2a-]
16DD-XJ)	.	.	.	.	.	.	.	.
8EE-XJ	.	.	.	4.ee-X)	.	4.eee-X)	.	.
8C-XL	.	.	.	.	.	.	.	.
(16D-L	.	.	.	.	.	.	.	.
16FF-XJJ)	.	.	.	.	.	.	.	.
=63	=63	=63	=63	=63	=63	=63	=63	=63
(16D-XLL	mf	8f-X'L 8a-X	mf	8r	.	8r	.	8f-XL 8a-X
16DD-XJ)	.	.	.	.	.	.	.	.
8EE-XJ	.	8f-'J 8a-	.	(4.e-X	.	(4.ee-X	.	8f-J 8a-
8C-XL	.	8f-'L 8a-	.	.	.	.	.	8f-L 8a-
(16D-L	.	8f-'J 8a-	.	.	.	.	.	[8f-J [8a-
16FF-XJJ)	.	.	.	.	.	.	.	.
=64	=64	=64	=64	=64	=64	=64	=64	=64
(16D-XLL	.	(4f-X	.	4.a-X	.	4.aa-X	.	2f-_ 2a-_
16DD-XJ)	.	.	.	.	.	.	.	.
8EE-XJ	.	.	.	.	.	.	.	.
8C-XL	.	4a-X)	.	.	.	.	.	.
(16D-L	.	.	.	[8b-X	<	[8bb-X	<	.
16FF-XJJ)	.	.	.	.	.	.	.	.
=65	=65	=65	=65	=65	=65	=65	=65	=65
(16D-XLL	.	(4f-X	.	4b-]	.	4bb-]	.	2f-_ 2a-_
16DD-XJ)	.	.	.	.	.	.	.	.
8EE-XJ	.	.	.	.	.	.	.	.
8C-XL	.	4a-X)	.	[4dd-X	.	[4ddd-X	.	.
(16D-L	.	.	.	.	.	.	.	.
16FF-XJJ)	.	.	.	.	.	.	.	.
=66	=66	=66	=66	=66	=66	=66	=66	=66
(16D-XLL	.	(4f-X	.	8dd-]	.	8ddd-]	.	2f-_ 2a-_
16DD-XJ)	.	.	.	.	.	.	.	.
8EE-XJ	.	.	.	[4.ee-X	[	[4.eee-X	[	.
8C-XL	.	4a-X)	.	.	.	.	.	.
(16D-L	.	.	.	.	.	.	.	.
16FF-XJJ)	.	.	.	.	.	.	.	.
=67	=67	=67	=67	=67	=67	=67	=67	=67
(16D-XLL	.	(4f-X	.	8ee-L]	.	8eee-L]	.	2f-] 2a-]
16DD-XJ)	.	.	.	.	.	.	.	.
8EE-XJ	.	.	.	(16ee-XL	.	(16eee-XL	.	.
.	.	.	.	16dd-XJJ	.	16ddd-XJJ	.	.
8C-XL	.	4a-X)	.	4f-X)	.	4ff-X)	.	.
(16D-L	.	.	.	.	.	.	.	.
16FF-XJJ)	.	.	.	.	.	.	.	.
=	=	=	=	=	=	=	=	=
*-	*-	*-	*-	*-	*-	*-	*-	*-
!!!system-decoration: s1[(s2,s3,s4,s5)]
!!!CDT: 1854/07/03-1928/08/12
!!!CBL: Hukvaldy, Moravia
!!!CDL: Moravaská Ostrava, Czech Republic
!!!CNT: Czech
!!!AGN: Orchestral; Symphonic
!!!MCN: Talich, Václav
!!!MDT: 1926/06/26
!!!MGN: Czech Philharmonic Orchestra
!!!MLC: Prague, Czechia
!!!MPD: 1926
!!!MPN:
!!!ODT: 1926
!!!PDT: 1926
!!!excerpt-start-measure: 58b
!!!excerpt-end-measure: 67
!!!excerpt-start-time: 1:56
!!!excerpt-end-time: 2:15
!!!EEV: 2020/01/25
!!!ONB: Converted from MusicXML on 2020/01/25
